static/dist/images/icons/network.svg

<svg xmlns="http://www.w3.org/2000/svg" viewBox="0 0 20 20"><path d="M5.274 6.915c.2 0 .394.029.576.086a15.774 15.774 0 0 1 2.283-2.1 1.954 1.954 0 0 1 .048-1.076A14.407 14.407 0 0 0 5.17 2.171a9.25 9.25 0 0 0-2.582 2.381c.519.92 1.136 1.777 1.838 2.557.256-.124.543-.194.848-.194zM3.316 8.872c0-.275.058-.537.159-.773A15.91 15.91 0 0 1 1.78 5.87a9.165 9.165 0 0 0-.98 4.131 9.16 9.16 0 0 0 1.295 4.705 15.614 15.614 0 0 1 1.62-4.652 1.947 1.947 0 0 1-.399-1.182zm6.72-6.383c.517 0 .985.201 1.336.529a15.578 15.578 0 0 1 3.215-.992A9.154 9.154 0 0 0 10 .8a9.167 9.167 0 0 0-3.236.588 15.76 15.76 0 0 1 2.277 1.375c.292-.174.631-.274.995-.274zm2.926 9.219a1.94 1.94 0 0 1 .509-.656 14.336 14.336 0 0 0-2.672-4.803 1.956 1.956 0 0 1-1.901-.211 14.343 14.343 0 0 0-1.964 1.803 1.93 1.93 0 0 1 .207 1.617 14.252 14.252 0 0 0 5.821 2.25zm2.539 2.643a15.872 15.872 0 0 1-.081 3.082 9.216 9.216 0 0 0 3.347-4.639 15.39 15.39 0 0 1-2.181.365 1.958 1.958 0 0 1-1.085 1.192zm-2.997-1.327a15.643 15.643 0 0 1-6.21-2.484 1.953 1.953 0 0 1-1.423.248 14.219 14.219 0 0 0-1.599 5.484 9.203 9.203 0 0 0 3.145 2.205 15.662 15.662 0 0 1 6.087-5.453zm3.672-9.843a14.296 14.296 0 0 0-4.193 1.068 1.946 1.946 0 0 1-.191 1.056 15.68 15.68 0 0 1 2.969 5.291 1.961 1.961 0 0 1 1.77 1.195c.886-.09 1.748-.26 2.578-.504a9.178 9.178 0 0 0-2.933-8.106zm-2.687 10.888a14.291 14.291 0 0 0-5.723 4.856A9.187 9.187 0 0 0 10 19.2a9.165 9.165 0 0 0 3.882-.859c.19-.928.29-1.887.29-2.869 0-.355-.016-.707-.043-1.055a1.923 1.923 0 0 1-.64-.348z"/></svg>

<?xml version="1.0" encoding="utf-8"?>
<!-- Generator: Adobe Illustrator 18.1.0, SVG Export Plug-In . SVG Version: 6.00 Build 0)  -->
<!DOCTYPE svg PUBLIC "-//W3C//DTD SVG 1.1//EN" "http://www.w3.org/Graphics/SVG/1.1/DTD/svg11.dtd">
<svg version="1.1" id="Network" xmlns="http://www.w3.org/2000/svg" xmlns:xlink="http://www.w3.org/1999/xlink" x="0px" y="0px"
	 viewBox="0 0 20 20" enable-background="new 0 0 20 20" xml:space="preserve">
<path d="M5.274,6.915c0.2,0,0.394,0.029,0.576,0.086c0.69-0.773,1.455-1.477,2.283-2.1C8.098,4.755,8.079,4.602,8.079,4.446
	c0-0.217,0.036-0.426,0.102-0.621C7.252,3.161,6.244,2.602,5.17,2.171C4.165,2.792,3.288,3.602,2.588,4.552
	c0.519,0.92,1.136,1.777,1.838,2.557C4.682,6.985,4.969,6.915,5.274,6.915z M3.316,8.872c0-0.275,0.058-0.537,0.159-0.773
	C2.847,7.407,2.278,6.663,1.78,5.87C1.155,7.112,0.8,8.515,0.8,10.001c0,1.719,0.474,3.328,1.295,4.705
	c0.294-1.654,0.851-3.219,1.62-4.652C3.465,9.726,3.316,9.315,3.316,8.872z M10.036,2.489c0.517,0,0.985,0.201,1.336,0.529
	c1.021-0.439,2.096-0.777,3.215-0.992C13.236,1.247,11.67,0.8,10,0.8c-1.139,0-2.229,0.209-3.236,0.588
	c0.799,0.395,1.561,0.855,2.277,1.375C9.333,2.589,9.672,2.489,10.036,2.489z M12.962,11.708c0.122-0.254,0.295-0.479,0.509-0.656
	c-0.578-1.777-1.493-3.404-2.672-4.803c-0.234,0.1-0.492,0.154-0.764,0.154c-0.425,0-0.816-0.137-1.137-0.365
	c-0.71,0.539-1.367,1.143-1.964,1.803C7.122,8.14,7.231,8.493,7.231,8.872c0,0.203-0.031,0.4-0.09,0.586
	C8.858,10.604,10.835,11.392,12.962,11.708z M15.501,14.351c0.026,0.371,0.041,0.744,0.041,1.121c0,0.664-0.042,1.318-0.122,1.961
	c1.56-1.139,2.748-2.758,3.347-4.639c-0.71,0.172-1.438,0.295-2.181,0.365C16.413,13.696,16.014,14.128,15.501,14.351z
	 M12.504,13.024c-2.272-0.377-4.377-1.244-6.21-2.484c-0.298,0.182-0.647,0.289-1.021,0.289c-0.139,0-0.272-0.014-0.402-0.041
	c-0.877,1.662-1.438,3.517-1.599,5.484c0.876,0.94,1.944,1.697,3.145,2.205C7.909,16.184,9.993,14.288,12.504,13.024z M16.176,3.181
	c-1.475,0.143-2.883,0.514-4.193,1.068c0.006,0.066,0.01,0.131,0.01,0.197c0,0.309-0.074,0.6-0.201,0.859
	c1.311,1.539,2.327,3.33,2.969,5.291c0.797,0.016,1.477,0.502,1.77,1.195c0.886-0.09,1.748-0.26,2.578-0.504
	c0.06-0.42,0.092-0.85,0.092-1.287C19.2,7.296,18.034,4.864,16.176,3.181z M13.489,14.069c-2.344,1.098-4.304,2.789-5.723,4.856
	C8.481,19.104,9.229,19.2,10,19.2c1.387,0,2.702-0.309,3.882-0.859c0.19-0.928,0.29-1.887,0.29-2.869
	c0-0.355-0.016-0.707-0.043-1.055C13.893,14.341,13.676,14.224,13.489,14.069z"/>
</svg>
